bundles/org.openhab.ui.habpanel/web/assets/icons/freepik-housethings/drawer-rack-of-a-livingroom-with-books-and-a-bowl.svg

<svg xmlns="http://www.w3.org/2000/svg" width="105" height="105" style="enable-background:new 0 0 105 105" xml:space="preserve"><path d="M0 31.5v42h105v-42H0zm35 35H8.75v-28H35v28zm31.5 0H40.25v-28H66.5v28zm31.5 0H71.75v-28H98v28zm-84-1.75h-3.5v-21H14v21zm5.25 0h-3.5v-21h3.5v21zm9.797-.227L20.276 45.44l3.181-1.463 8.771 19.083-3.181 1.463zM41.708 54.25h22.604c0 6.242-5.061 11.302-11.301 11.302-6.241 0-11.303-5.06-11.303-11.302z"/></svg>

<?xml version="1.0" encoding="iso-8859-1"?>
<!-- Generator: Adobe Illustrator 16.0.0, SVG Export Plug-In . SVG Version: 6.00 Build 0)  -->
<!DOCTYPE svg PUBLIC "-//W3C//DTD SVG 1.1//EN" "http://www.w3.org/Graphics/SVG/1.1/DTD/svg11.dtd">
<svg version="1.1" id="Capa_1" xmlns="http://www.w3.org/2000/svg" xmlns:xlink="http://www.w3.org/1999/xlink" x="0px" y="0px"
	 width="105px" height="105px" viewBox="0 0 105 105" style="enable-background:new 0 0 105 105;" xml:space="preserve">
<g>
	<path d="M0,31.5v42h105v-42H0z M35,66.5H8.75v-28H35V66.5z M66.5,66.5H40.25v-28H66.5V66.5z M98,66.5H71.75v-28H98V66.5z M14,64.75
		h-3.5v-21H14V64.75z M19.25,64.75h-3.5v-21h3.5V64.75z M29.047,64.523l-8.771-19.083l3.181-1.463l8.771,19.083L29.047,64.523z
		 M41.708,54.25h22.604c0,6.242-5.061,11.302-11.301,11.302C46.77,65.552,41.708,60.492,41.708,54.25z"/>
</g>
<g>
</g>
<g>
</g>
<g>
</g>
<g>
</g>
<g>
</g>
<g>
</g>
<g>
</g>
<g>
</g>
<g>
</g>
<g>
</g>
<g>
</g>
<g>
</g>
<g>
</g>
<g>
</g>
<g>
</g>
</svg>
